X:1
T:Title
%%score { ( 1 3 4 ) | ( 2 5 ) }
L:1/8
Q:1/4=90
M:6/8
K:Bb
V:1 treble nm="Grand Piano"
V:3 treble 
V:4 treble 
V:2 bass 
V:5 bass 
V:1
 [DF][_D=E][=DF] [_EG] [DF]2 | [EF][EG]A [DB]3 | [GB][FA][EG] [EG] [DF]2 | FF=E F3 | %4
w: Howard~K.~Carl * * * *||||
 AGA [DB] [DF]2 | cBc [Fd]3 | cBG [DF] [FB]2 | [Ec][EG][EA] [DB]3 | .[Fd]6 | [DB]3 z3 | .[EG]6 | %11
w: |||||||
 [DF]6 | .c6 | [Ge]3 z3 | .c6 | c6 | .d6 | [DB]3 z3 | .[Fd]6 | [Ee]6 | .[EG]6 | %21
w: ||||||||||
 [DB]3 [B,DF]2 [B,DB] | [=Ed]2 [Ec] [Fd]2 [_Ec] | [DB]6 |] %24
w: |||
V:2
 [B,,B,][B,,B,][B,,B,] [B,,B,] [B,,B,]2 | [C,A,][C,G,][F,E] [B,,F,]3 | %2
 [E,G,][E,A,][E,B,] [B,,B,] [B,,B,]2 | [C,A,C][C,G,C][C,B,C] [F,A,C]3 | %4
 [F,CE][F,CE][F,CE] [B,,B,] [B,,B,]2 | [F,A,F][F,G,F][F,A,F] [B,,B,]3 | %6
 [E,G,E][E,G,E][E,B,E] [B,,B,] [D,B,]2 | [E,G,][C,C][F,C] [B,,B,]3 | %8
 [B,,B,]B,,B,, z[K:treble] =EF | B,,B,,B,, B,,3 | E,E,E, z[K:treble] FG | B,,B,,B,, .B,,3 | %12
 E-[F,E-][F,E-] EDE | [B,,B,]B,,B,, [B,,B,]3 | [C,A,]C,C, z[K:treble] =EE | %15
 [A,F]CB,[K:bass] A,G,A, | [B,,B,]B,,B,, z[K:treble] =EF | B,,B,,B,, B,,3 | %18
 [G,=B,]G,G, z[K:treble] FF | [C,C]C,C, .C,3 | C,C,C, C,[D,G,][E,G,] | F,F,F, F,2 G, | %22
 [C,B,]2 [C,B,] [F,A,]2 [F,A,] | [B,,B,]6 |] %24
V:3
 x6 | x6 | x6 | x6 | x6 | x6 | x6 | x6 | z B,B, z _d=d | B,B,B, [B,DF]3 | B,B,B, z AB | %11
 B,B,B, .B,3 | z A,A, z =Bc | z B,B, [Fd]3 | F-[A,F-][A,F] =EGd | z AG F=E_E | %16
 D-[B,D-][B,D] F_d=d | B,B,B, [B,DF]3 | z =B,B, z _d=d | z CC .C3 | CCC C[Fd][Ec] | x6 | x6 | x6 |] %24
V:4
 x6 | x6 | x6 | x6 | x6 | x6 | x6 | x6 | z3 B,3 | x6 | z3 B,3 | x6 | z3 A,3 | x6 | x6 | x6 | x6 | %17
 x6 | z3 =B,3 | x6 | x6 | x6 | x6 | x6 |] %24
V:5
 x6 | x6 | x6 | x6 | x6 | x6 | x6 | x6 | z3 B,,3[K:treble] | x6 | z3 E,3[K:treble] | x6 | %12
 .[F,A,]3 F,3 | x6 | z3 [C,B,]3[K:treble] | F,6[K:bass] | z3 [B,,B,]3[K:treble] | x6 | %18
 z3 G,3[K:treble] | x6 | x6 | x6 | x6 | x6 |] %24

